icons/folder-resource.svg

<svg xmlns="http://www.w3.org/2000/svg" viewBox="0 0 16 16"><path id="folder" fill="#fbc02d" d="m6.922 3.768-.644-.536A1 1 0 0 0 5.638 3H2a1 1 0 0 0-1 1v8a1 1 0 0 0 1 1h12a1 1 0 0 0 1-1V5a1 1 0 0 0-1-1H7.562a1 1 0 0 1-.64-.232"/><path id="motive" fill="#fff9c4" d="M9.5 6a.5.5 0 0 0-.5.5v6a.5.5 0 0 0 .5.5h6a.5.5 0 0 0 .5-.5v-6a.5.5 0 0 0-.5-.5zm.5 1h5v1h-5zM7 8v6.5a.5.5 0 0 0 .5.5H14v-1H8V8zm3 1h5v1h-5zm0 2h3v1h-3z"/></svg>

<svg xmlns="http://www.w3.org/2000/svg" viewBox="0 0 16 16">
<path id="folder" fill="#fbc02d" d="m6.922 3.768-.644-.536A1 1 0 0 0 5.638 3H2a1 1 0 0 0-1 1v8a1 1 0 0 0 1 1h12a1 1 0 0 0 1-1V5a1 1 0 0 0-1-1H7.562a1 1 0 0 1-.64-.232" />
<path  id="motive" fill="#fff9c4" d="M 9.5 6 A 0.5 0.5 0 0 0 9 6.5 L 9 12.5 A 0.5 0.5 0 0 0 9.5 13 L 15.5 13 A 0.5 0.5 0 0 0 16 12.5 L 16 6.5 A 0.5 0.5 0 0 0 15.5 6 L 9.5 6 z M 10 7 L 15 7 L 15 8 L 10 8 L 10 7 z M 7 8 L 7 14.5 A 0.5 0.5 0 0 0 7.5 15 L 14 15 L 14 14 L 8 14 L 8 8 L 7 8 z M 10 9 L 15 9 L 15 10 L 10 10 L 10 9 z M 10 11 L 13 11 L 13 12 L 10 12 L 10 11 z " />
</svg>
